X:007
L:1/8
M:6/8
K:GDor
fag fed | dcA B2 c | ded d2 c | dBG G2 ::
g | gdg gab | agf f2 a | gag gfe | fdd d2 e |
fag fed | dcA B2 c | ded d2 c | dBG G2 :|]

